packages/match-icons/product/svg/channels.svg

<svg fill="none" height="32" viewBox="0 0 32 32" width="32" xmlns="http://www.w3.org/2000/svg" xmlns:xlink="http://www.w3.org/1999/xlink"><clipPath id="a"><path d="m0 0h32v32h-32z"/></clipPath><g clip-path="url(#a)" fill="#394762"><path d="m7.77 28.09c-.26545.0054-.52869-.0493-.77-.16-.3029-.1423-.55833-.3689-.7357-.6527-.17736-.2838-.26913-.6127-.2643-.9473v-4.33h-5c-.265216 0-.51957-.1054-.707107-.2929-.187536-.1875-.292893-.4419-.292893-.7071s.105357-.5196.292893-.7071c.187537-.1875.441891-.2929.707107-.2929h6c.13161-.0008.26207.0245.38391.0742.12183.0498.23265.1231.32609.2158.09268.0934.16601.2043.21577.3261.04977.1218.07499.2523.07423.3839v4.77l6.33-5.53c.1863-.1595.4248-.2449.67-.24h16c.2652 0 .5196.1054.7071.2929s.2929.4419.2929.7071-.1054.5196-.2929.7071-.4419.2929-.7071.2929h-15.62l-6.47 5.66c-.31669.2745-.72092.427-1.14.43zm24.23-13.09c0-.2652-.1054-.5196-.2929-.7071s-.4419-.2929-.7071-.2929h-30c-.265216 0-.51957.1054-.707107.2929-.187536.1875-.292893.4419-.292893.7071s.105357.5196.292893.7071c.187537.1875.441891.2929.707107.2929h30c.2652 0 .5196-.1054.7071-.2929s.2929-.4419.2929-.7071zm0-6c0-.26522-.1054-.51957-.2929-.70711-.1875-.18753-.4419-.29289-.7071-.29289h-30c-.265216 0-.51957.10536-.707107.29289-.187536.18754-.292893.44189-.292893.70711s.105357.51957.292893.70711c.187537.18753.441891.29289.707107.29289h30c.2652 0 .5196-.10536.7071-.29289.1875-.18754.2929-.44189.2929-.70711z"/><path d="m31 4h-30c-.265216 0-.51957-.10536-.707107-.29289-.187536-.18754-.292893-.44189-.292893-.70711s.105357-.51957.292893-.70711c.187537-.18753.441891-.29289.707107-.29289h30c.2652 0 .5196.10536.7071.29289.1875.18754.2929.44189.2929.70711s-.1054.51957-.2929.70711c-.1875.18753-.4419.29289-.7071.29289z"/></g></svg>

<svg width="32" height="32" viewBox="0 0 32 32" fill="none" xmlns="http://www.w3.org/2000/svg">
<g clip-path="url(#clip0)">
<path d="M7.77 28.09C7.50455 28.0954 7.24131 28.0407 7 27.93C6.6971 27.7877 6.44167 27.5611 6.2643 27.2773C6.08694 26.9935 5.99517 26.6646 6 26.33V22H1C0.734784 22 0.48043 21.8946 0.292893 21.7071C0.105357 21.5196 0 21.2652 0 21C0 20.7348 0.105357 20.4804 0.292893 20.2929C0.48043 20.1054 0.734784 20 1 20H7C7.13161 19.9992 7.26207 20.0245 7.38391 20.0742C7.50574 20.124 7.61656 20.1973 7.71 20.29C7.80268 20.3834 7.87601 20.4943 7.92577 20.6161C7.97554 20.7379 8.00076 20.8684 8 21V25.77L14.33 20.24C14.5163 20.0805 14.7548 19.9951 15 20H31C31.2652 20 31.5196 20.1054 31.7071 20.2929C31.8946 20.4804 32 20.7348 32 21C32 21.2652 31.8946 21.5196 31.7071 21.7071C31.5196 21.8946 31.2652 22 31 22H15.38L8.91 27.66C8.59331 27.9345 8.18908 28.087 7.77 28.09V28.09ZM32 15C32 14.7348 31.8946 14.4804 31.7071 14.2929C31.5196 14.1054 31.2652 14 31 14H1C0.734784 14 0.48043 14.1054 0.292893 14.2929C0.105357 14.4804 0 14.7348 0 15C0 15.2652 0.105357 15.5196 0.292893 15.7071C0.48043 15.8946 0.734784 16 1 16H31C31.2652 16 31.5196 15.8946 31.7071 15.7071C31.8946 15.5196 32 15.2652 32 15ZM32 9C32 8.73478 31.8946 8.48043 31.7071 8.29289C31.5196 8.10536 31.2652 8 31 8H1C0.734784 8 0.48043 8.10536 0.292893 8.29289C0.105357 8.48043 0 8.73478 0 9C0 9.26522 0.105357 9.51957 0.292893 9.70711C0.48043 9.89464 0.734784 10 1 10H31C31.2652 10 31.5196 9.89464 31.7071 9.70711C31.8946 9.51957 32 9.26522 32 9Z" fill="#394762"/>
<path d="M31 4H1C0.734784 4 0.48043 3.89464 0.292893 3.70711C0.105357 3.51957 0 3.26522 0 3C0 2.73478 0.105357 2.48043 0.292893 2.29289C0.48043 2.10536 0.734784 2 1 2H31C31.2652 2 31.5196 2.10536 31.7071 2.29289C31.8946 2.48043 32 2.73478 32 3C32 3.26522 31.8946 3.51957 31.7071 3.70711C31.5196 3.89464 31.2652 4 31 4Z" fill="#394762"/>
</g>
<defs>
<clipPath id="clip0">
<rect width="32" height="32" fill="white"/>
</clipPath>
</defs>
</svg>
